!!!OTL: ICH GING BEI EITLER NACHT
!!!ARE: Europa, Mitteleuropa, Deutschland
!!!SCT: E0157
!!!YEM: Copyright 1995, estate of Helmut Schaffrath.
**kern
*ICvox
*Ivox
*M3/4
*k[b-]
*d:
{8d
8e
=1
4.fn
8e
4fn
=2
4.g
8fn
4g
=3
[2.a
=4
4a]
4r}
{4a
=5
4.g
8a
4g
=6
4.a
8b-
4g
=7
[2.fn
=8
4fn]
4r}
{8fn
8g
=9
2a
4a
=10
4.ccn
8b-
4a
=11
2.g
=12
4e
4a}
{4g
=13
4.fn
8e
4d
=14
4.c#
8d
4e
=15
[2.d
=16
4d]
4r}
==
!!!AGN: erzaehlendes Volks - Lied, Scherz, Schwank, Ballade ?
!!!ONB: ESAC (Essen Associative Code) Database: ERK1
!!!AMT: simple triple
!!!AIN: vox
!!!EED: Helmut Schaffrath
!!!EEV: 1.0
*-
